icon/lg/derby.svg

<svg width="256" height="166" xmlns="http://www.w3.org/2000/svg" preserveAspectRatio="xMidYMid"><path d="M26.213 165.873c9.34-39.941 20.981-79.13 44.055-113.614-3.517 3.961-7.298 7.721-10.507 11.918-16.405 21.446-27.25 45.782-36.342 70.983-2.959 8.202-5.952 16.421-8.261 24.816-1.306 4.748-1.772 5.897-1.772 5.897H0c.145-1.196.58-2.215.824-2.961 10.566-32.304 23.315-63.598 42.581-91.871 7.578-11.121 16.46-21.034 27.411-28.929 2.682-1.933 3.288-4.023 3.396-7.277-1.614-10.811 2.736-32.995 3.616-33.269 7.869 7.047 13.997 14.775 19.568 23.113C102.207 16.79 110.174.994 112.898 0c2.392 6.704 3.763 14.837 4.761 21.781.824 5.731.561 11.618 1.368 17.353.144 1.023.024 2.914.624 3.975.643 1.138 2.031 1.425 2.942 1.854 8.628 4.073 16.021 8.021 26.341 11.253 4.718 1.477 9.713 2.707 14.075 4.967 1.947 1.009 3.746 4.116 3.936 6.185.154 1.671.583 4.503.583 4.503s2.623 1.139 4.107 1.925c14.815 7.839 29.339 16.244 44.286 23.815 6.961 3.526 14.565 5.883 22.033 8.282 8.81 2.83 15.487 8.05 17.434 17.118 2.028 9.444-1.056 18.1-8.21 24.714-6.828 6.312-14.742 5.317-22.611 2.029-13.06-5.455-26.622-5.787-40.35-3.898-12.697 1.747-25.341 3.866-38.033 5.651-11.532 1.622-22.869 1.266-34.372-5.104-.89 6.574-1.144 13.124-2.003 19.47H26.213Zm173.211-24.498c-2.262-.291-31.171-.774-45.436.354-17.678 1.398-32.903 1.843-45.142-13.508-.092-.116-2.11-2.517-2.605-2.548-.223-.014.902 4.272 1.996 6.068 8.366 13.735 21.983 16.232 36.18 15.332 17.333-1.097 54.904-5.478 55.007-5.698Zm21.064-31.199c-7.218-2.879-14.843-5.035-21.812-8.426-9.489-4.618-18.247-9.96-27.645-14.775-2.455-1.258-5.278-2.174-5.278-2.174s-2.472 2.03-3.915 5.911c20.969 5.464 37.004 18.983 58.65 19.464Zm-93.234-37.594c3.266 7.714 10.905 12.53 17.116 11.147 4.227-.942 6.044-3.837 6.246-8.425-7.035-.937-12.408-.887-19.105-1.754-.807-.104-2.959-.968-4.257-.968ZM80.785 20.367c-3.117 12.283 3.956 25.514 14.983 21.178-9.023-4.548-12.123-10.929-14.983-21.178Zm164.698 108.542c-5.402.755-7.343-1.619-8.33-8.175-1.824 4.26-1.397 10.42 2.074 11.906 3.318 1.421 6.212-1.723 6.256-3.731Z" fill="#E84B52"/></svg>

<?xml version="1.0" encoding="UTF-8" standalone="no"?>
<svg viewBox="0 0 256 166" version="1.1" xmlns="http://www.w3.org/2000/svg" xmlns:xlink="http://www.w3.org/1999/xlink" preserveAspectRatio="xMidYMid" height="1em" width="1em">
  <g>
    <path d="M26.213,165.873 C35.553,125.932 47.194,86.743 70.268,52.259 C66.751,56.22 62.97,59.98 59.761,64.177 C43.356,85.623 32.511,109.959 23.419,135.16 C20.46,143.362 17.467,151.581 15.158,159.976 C13.852,164.724 13.386,165.873 13.386,165.873 L0,165.873 C0.145,164.677 0.58,163.658 0.824,162.912 C11.39,130.608 24.139,99.314 43.405,71.041 C50.983,59.92 59.865,50.007 70.816,42.112 C73.498,40.179 74.104,38.089 74.212,34.835 C72.598,24.024 76.948,1.84 77.828,1.566 C85.697,8.613 91.825,16.341 97.396,24.679 C102.207,16.79 110.174,0.994 112.898,0 C115.29,6.704 116.661,14.837 117.659,21.781 C118.483,27.512 118.22,33.399 119.027,39.134 C119.171,40.157 119.051,42.048 119.651,43.109 C120.294,44.247 121.682,44.534 122.593,44.963 C131.221,49.036 138.614,52.984 148.934,56.216 C153.652,57.693 158.647,58.923 163.009,61.183 C164.956,62.192 166.755,65.299 166.945,67.368 C167.099,69.039 167.528,71.871 167.528,71.871 C167.528,71.871 170.151,73.01 171.635,73.796 C186.45,81.635 200.974,90.04 215.921,97.611 C222.882,101.137 230.486,103.494 237.954,105.893 C246.764,108.723 253.441,113.943 255.388,123.011 C257.416,132.455 254.332,141.111 247.178,147.725 C240.35,154.037 232.436,153.042 224.567,149.754 C211.507,144.299 197.945,143.967 184.217,145.856 C171.52,147.603 158.876,149.722 146.184,151.507 C134.652,153.129 123.315,152.773 111.812,146.403 C110.922,152.977 110.668,159.527 109.809,165.873 L26.213,165.873 L26.213,165.873 Z M199.424,141.375 C197.162,141.084 168.253,140.601 153.988,141.729 C136.31,143.127 121.085,143.572 108.846,128.221 C108.754,128.105 106.736,125.704 106.241,125.673 C106.018,125.659 107.143,129.945 108.237,131.741 C116.603,145.476 130.22,147.973 144.417,147.073 C161.75,145.976 199.321,141.595 199.424,141.375 L199.424,141.375 Z M220.488,110.176 C213.27,107.297 205.645,105.141 198.676,101.75 C189.187,97.132 180.429,91.79 171.031,86.975 C168.576,85.717 165.753,84.801 165.753,84.801 C165.753,84.801 163.281,86.831 161.838,90.712 C182.807,96.176 198.842,109.695 220.488,110.176 L220.488,110.176 Z M127.254,72.582 C130.52,80.296 138.159,85.112 144.37,83.729 C148.597,82.787 150.414,79.892 150.616,75.304 C143.581,74.367 138.208,74.417 131.511,73.55 C130.704,73.446 128.552,72.582 127.254,72.582 L127.254,72.582 Z M80.785,20.367 C77.668,32.65 84.741,45.881 95.768,41.545 C86.745,36.997 83.645,30.616 80.785,20.367 L80.785,20.367 Z M245.483,128.909 C240.081,129.664 238.14,127.29 237.153,120.734 C235.329,124.994 235.756,131.154 239.227,132.64 C242.545,134.061 245.439,130.917 245.483,128.909 L245.483,128.909 Z" fill="#E84B52"/>
  </g>
</svg>
